images/route.svg

<svg height="250" viewBox="0 0 250 250" width="250" xmlns="http://www.w3.org/2000/svg" xmlns:xlink="http://www.w3.org/1999/xlink"><linearGradient id="a"><stop offset="0" stop-color="#ff8b65"/><stop offset="1" stop-color="#ff3d56"/></linearGradient><linearGradient id="b" gradientUnits="userSpaceOnUse" x1="82.7256501346" x2="167.27445492156" xlink:href="#a" y1="81.04232409538" y2="81.04232409538"/><linearGradient id="c" gradientUnits="userSpaceOnUse" x1="84.00265403922" x2="158.69161804457" xlink:href="#a" y1="164.11625015688" y2="164.11625015688"/><path d="m249.996094 125c0 69.035156-55.960938 124.996094-124.996094 124.996094s-125-55.960938-125-124.996094 55.964844-125 125-125 124.996094 55.964844 124.996094 125zm0 0" fill="#3e3e5e"/><path d="m897.710677 473.765015c0 234.128748-189.816914 423.945662-423.945662 423.945662-234.143554 0-423.960468-189.816914-423.960468-423.945662 0-234.143554 189.816914-423.960468 423.960468-423.960468 234.128748 0 423.945662 189.816914 423.945662 423.960468zm0 0" fill="#282841" stroke="#323250" stroke-miterlimit="10" stroke-width="2" transform="scale(.263844)"/><path d="m167.277344 90.515625c.023437 7.511719-3.03125 14.707031-8.460938 19.902344l-23.183594 22.335937c9.585938-11.777344 9.164063-29.164062-1.582031-40.429687-.792969-.828125-1.636719-1.613281-2.523437-2.34375l-47.457032-45.726563c-.839843-.804687-1.324218-1.914062-1.34375-3.074218-.023437-1.164063.417969-2.289063 1.226563-3.125 10.921875-11.339844 28.964844-11.671876 40.300781-.746094l34.5625 33.304687c5.429688 5.191407 8.488282 12.386719 8.460938 19.902344zm0 0" fill="url(#b)"/><path d="m117.097656 146.933594c-10.769531-11.296875-11.179687-28.730469-1.535156-40.515625l-22.980469 22.140625c-5.421875 5.226562-8.519531 12.414062-8.585937 19.945312-.070313 7.53125 2.890625 14.777344 8.21875 20.101563l51.921875 51.925781c1.710937 1.710938 4.488281 1.710938 6.199219 0 11.128906-11.128906 11.128906-29.171875 0-40.300781l-31.398438-31.398438.078125-.074219c-.648437-.582031-1.300781-1.179687-1.917969-1.824218zm0 0" fill="url(#c)"/></svg>

<svg xmlns="http://www.w3.org/2000/svg" xmlns:xlink="http://www.w3.org/1999/xlink" width="250px" height="250px" viewBox="0 0 250 250" version="1.1">
<defs>
<linearGradient id="linear0" gradientUnits="userSpaceOnUse" x1="313.540009" y1="307.160004" x2="633.98999" y2="307.160004" gradientTransform="matrix(0.263844,0,0,0.263844,0,0)">
<stop offset="0" style="stop-color:rgb(100%,54.509807%,39.607844%);stop-opacity:1;"/>
<stop offset="1" style="stop-color:rgb(100%,23.921569%,33.725491%);stop-opacity:1;"/>
</linearGradient>
<linearGradient id="linear1" gradientUnits="userSpaceOnUse" x1="318.380005" y1="622.02002" x2="601.460022" y2="622.02002" gradientTransform="matrix(0.263844,0,0,0.263844,0,0)">
<stop offset="0" style="stop-color:rgb(100%,54.509807%,39.607844%);stop-opacity:1;"/>
<stop offset="1" style="stop-color:rgb(100%,23.921569%,33.725491%);stop-opacity:1;"/>
</linearGradient>
</defs>
<g id="surface1">
<path style=" stroke:none;fill-rule:nonzero;fill:rgb(24.313726%,24.313726%,36.862746%);fill-opacity:1;" d="M 249.996094 125 C 249.996094 194.035156 194.035156 249.996094 125 249.996094 C 55.964844 249.996094 0 194.035156 0 125 C 0 55.964844 55.964844 0 125 0 C 194.035156 0 249.996094 55.964844 249.996094 125 Z M 249.996094 125 "/>
<path style="fill-rule:nonzero;fill:rgb(15.686275%,15.686275%,25.490198%);fill-opacity:1;stroke-width:2;stroke-linecap:butt;stroke-linejoin:miter;stroke:rgb(19.607843%,19.607843%,31.37255%);stroke-opacity:1;stroke-miterlimit:10;" d="M 897.710677 473.765015 C 897.710677 707.893763 707.893763 897.710677 473.765015 897.710677 C 239.621461 897.710677 49.804547 707.893763 49.804547 473.765015 C 49.804547 239.621461 239.621461 49.804547 473.765015 49.804547 C 707.893763 49.804547 897.710677 239.621461 897.710677 473.765015 Z M 897.710677 473.765015 " transform="matrix(0.263844,0,0,0.263844,0,0)"/>
<path style=" stroke:none;fill-rule:nonzero;fill:url(#linear0);" d="M 167.277344 90.515625 C 167.300781 98.027344 164.246094 105.222656 158.816406 110.417969 L 135.632812 132.753906 C 145.21875 120.976562 144.796875 103.589844 134.050781 92.324219 C 133.257812 91.496094 132.414062 90.710938 131.527344 89.980469 L 84.070312 44.253906 C 83.230469 43.449219 82.746094 42.339844 82.726562 41.179688 C 82.703125 40.015625 83.144531 38.890625 83.953125 38.054688 C 94.875 26.714844 112.917969 26.382812 124.253906 37.308594 L 158.816406 70.613281 C 164.246094 75.804688 167.304688 83 167.277344 90.515625 Z M 167.277344 90.515625 "/>
<path style=" stroke:none;fill-rule:nonzero;fill:url(#linear1);" d="M 117.097656 146.933594 C 106.328125 135.636719 105.917969 118.203125 115.5625 106.417969 L 92.582031 128.558594 C 87.160156 133.785156 84.0625 140.972656 83.996094 148.503906 C 83.925781 156.035156 86.886719 163.28125 92.214844 168.605469 L 144.136719 220.53125 C 145.847656 222.242188 148.625 222.242188 150.335938 220.53125 C 161.464844 209.402344 161.464844 191.359375 150.335938 180.230469 L 118.9375 148.832031 L 119.015625 148.757812 C 118.367188 148.175781 117.714844 147.578125 117.097656 146.933594 Z M 117.097656 146.933594 "/>
</g>
</svg>
